X: 34327
T: Return Of Spring, The
R: barndance
M: 4/4
K: Gmajor
M:2/4
B|d>d dB|G>G GD|G>B ed|dc cB|
c2- cA|F2- FD|FA ed|dc Bc|
d>d dB|G>G GD|G>B ed|dc c>B|
Af f>f|Ae e^c|dB c/B/A|GF G2||
g>g ge|ff f>d|ee eB|d2 dB|
GB/d/ ed|F2- FD|F>A ed|G2- GB/d/|
g>g ge|ff f>d|ee eB|d2- dB|
GB/d/ ed|F2- Fe/f/|gf ef|g2 g>e||
|:dB g>f|ee ag|fd ef|ed BG/B/|
dB g>f|ee a>g|fd ef|1 g2 g2:|2 g2- g||

